X: 9
T: The Runaway
%R: reel
B: Cahusac "Annual Collection of Twenty-four favorite Country Dances For the Year 1809", p.5 #1
F: http://imslp.org/wiki/24_Country_Dances_for_the_Year_1809_%28Various%29
F: http://javanese.imslp.info/files/imglnks/usimg/0/0d/IMSLP351863-PMLP71785-wm_cahusac_24_dances_1809.pdf
Z: 2015 by John Chambers  <jc:trillian.mit.edu>
M: 2/4
L: 1/8
K: D
% - - - - - - - - - - - - - - - - - - - - - - - - - - - - -
|:\
FAdA | f2ed | cea^g ba=ge | FAdA |\
f2ed |[1 gedc | d2d2 :|[2 agec | d2d2 |]
|:\
{e}dAfe | dAfe | dAfd | gedc | dAfe |\
dAfd |[1 gedc | d2d2 :|[2 agec | d2d2 |]
% - - - - - - - - - - Dance description - - - - - - - - - -
%%begintext align
%% Lead twice down the mid: up again,
%% Pousette & Right & left.
%%endtext

%%sep 1 1 500
%%sep 1 1 500
